src/assets/icons/import.svg

<?xml version="1.0" encoding="UTF-8"?>
<svg width="48px" height="48px" viewBox="0 0 48 48" version="1.1" xmlns="http://www.w3.org/2000/svg" xmlns:xlink="http://www.w3.org/1999/xlink">
    <title>添加备份 2</title>
    <g id="WEB" stroke="none" stroke-width="1" fill="none" fill-rule="evenodd" opacity="0.5">
        <g id="欢迎页" transform="translate(-1008.000000, -550.000000)" fill="#6E7585" fill-rule="nonzero">
            <g id="编组-2" transform="translate(560.000000, 240.000000)">
                <g id="编组-5" transform="translate(408.000000, 270.000000)">
                    <g id="编组" transform="translate(40.000000, 40.000000)">
                        <path d="M22,6 L22,27.171 L18.3431458,23.5147186 C17.603205,22.7747779 16.4277208,22.7358336 15.6419334,23.3978859 L15.5147186,23.5147186 C14.73367,24.2957672 14.73367,25.5620972 15.5147186,26.3431458 L15.5147186,26.3431458 L22.5857864,33.4142136 C22.6238207,33.4522478 22.6633797,33.4887572 22.7043639,33.5236423 C22.7153056,33.5330589 22.7268853,33.5427109 22.7385471,33.5522116 C22.7681999,33.5762127 22.7982449,33.5992744 22.8289456,33.6214855 C22.8419114,33.6310598 22.8549238,33.6402438 22.8680197,33.6492542 C22.9000469,33.6710763 22.9326889,33.6921572 22.9659651,33.7122955 C22.9778717,33.7196997 22.9899252,33.726818 23.0020362,33.733799 C23.0411999,33.7562083 23.0813026,33.7775656 23.1221885,33.797569 C23.1273841,33.8002091 23.1324411,33.8026518 23.1375062,33.805072 C23.2428402,33.855411 23.3533535,33.8969127 23.4679886,33.9284667 L23.4681124,33.9283367 C23.505336,33.9387468 23.5431209,33.947971 23.5813092,33.9561052 C23.5996218,33.9598305 23.6182592,33.9635278 23.636936,33.966958 C23.6704952,33.9732797 23.7042303,33.9785789 23.7382341,33.983024 C23.7572666,33.9853991 23.7766131,33.9876556 23.7959829,33.9896302 L23.8507377,33.9945143 L23.8507377,33.9945143 L23.8891098,33.9969425 C23.8991369,33.9974959 23.9091673,33.9979742 23.9192001,33.9983773 L23.95,33.998 L24,34 C24.0168482,34 24.0336478,33.9997917 24.0503963,33.9993774 L24.0807999,33.9983773 L24.0807999,33.9983773 L24.1104658,33.997001 C24.1417522,33.9952978 24.1728473,33.9928756 24.2037348,33.9897506 L24.2419752,33.9853959 C24.2486702,33.9845846 24.2553618,33.9837394 24.2620499,33.9828605 C24.2957697,33.9785789 24.3295048,33.9732797 24.3629491,33.9671486 C24.3817408,33.9635278 24.4003782,33.9598305 24.4189701,33.9558661 C24.4677473,33.945656 24.5161381,33.9334081 24.5637909,33.9194339 L24.5636922,33.919312 C24.667096,33.8891396 24.7669329,33.8507322 24.8625647,33.8049483 C24.8675589,33.8026518 24.8726159,33.8002091 24.8776647,33.7977439 C24.9186974,33.7775656 24.9588001,33.7562083 24.9980613,33.7335556 C25.0100748,33.726818 25.0221283,33.7196997 25.034122,33.712444 C25.0673111,33.6921572 25.0999531,33.6710763 25.1319239,33.6490897 C25.1450762,33.6402438 25.1580886,33.6310598 25.1710143,33.6217022 C25.2017551,33.5992744 25.2318001,33.5762127 25.2611548,33.5523351 L25.2869988,33.5310463 L25.2869988,33.5310463 L25.2956361,33.5236423 C25.3366203,33.4887572 25.3761793,33.4522478 25.4142136,33.4142136 L32.4852814,26.3431458 C33.26633,25.5620972 33.26633,24.2957672 32.4852814,23.5147186 C31.7042328,22.73367 30.4379028,22.73367 29.6568542,23.5147186 L29.6568542,23.5147186 L26,27.171 L26,6 L40,6 C43.3137085,6 46,8.6862915 46,12 L46,38 C46,41.3137085 43.3137085,44 40,44 L8,44 C4.6862915,44 2,41.3137085 2,38 L2,12 C2,8.6862915 4.6862915,6 8,6 L22,6 Z M24,2 C25.1045695,2 26,2.8954305 26,4 L26,6 L22,6 L22,4 C22,2.8954305 22.8954305,2 24,2 Z" id="形状结合备份-2"></path>
                    </g>
                </g>
            </g>
        </g>
    </g>
</svg>

<svg width="48" height="48" xmlns="http://www.w3.org/2000/svg"><path d="M22 6v21.171l-3.657-3.656a2 2 0 0 0-2.701-.117l-.127.117a2 2 0 0 0 0 2.828l7.07 7.071a2.012 2.012 0 0 0 .883.514 1.856 1.856 0 0 0 .328.062l.055.005.038.002.03.001h.031L24 34h.05l.03-.002.03-.001.094-.007.038-.005a2.009 2.009 0 0 0 .322-.066 1.97 1.97 0 0 0 .697-.367l.026-.021.009-.007c.04-.035.08-.072.118-.11l7.071-7.07a2 2 0 0 0-2.828-2.83L26 27.172V6h14a6 6 0 0 1 6 6v26a6 6 0 0 1-6 6H8a6 6 0 0 1-6-6V12a6 6 0 0 1 6-6h14zm2-4a2 2 0 0 1 2 2v2h-4V4a2 2 0 0 1 2-2z" fill="#6E7585" fill-rule="nonzero" opacity=".5"/></svg>
